X:0321
T:Boyne Water.
N:D in bar 4 is what the book says (surely should be E).
N:upbeat to second part missing in the book
M:C
L:1/8
Q:1/2=76
I: :| ::
Z:Jack Campin * www.campin.me.uk * 2009
K:E Minor
g2|e3 d  e2g2|d>edB G2(AB)|c2 BA e2 dB| A3 G D2
g2|edef  g2fe|dcBA  G2 AB |c2 BA e2 dB| A3 G E2 :|
A2|G2ga  g3 g|gage  d2 g2 |e2 ab a3  b| abag e3 f|
   gfga Tg2fe|dcBA  G2 AB |c2 BA e2 dB|TA3 G E2 :|

